contributed-vectors/waistline.svg

<?xml version="1.0" encoding="UTF-8" standalone="no"?>
<svg
   viewBox="0 0 192 192"
   version="1.1"
   id="svg16"
   sodipodi:docname="waistline.svg"
   xml:space="preserve"
   inkscape:version="1.2 (dc2aedaf03, 2022-05-15)"
   xmlns:inkscape="http://www.inkscape.org/namespaces/inkscape"
   xmlns:sodipodi="http://sodipodi.sourceforge.net/DTD/sodipodi-0.dtd"
   xmlns="http://www.w3.org/2000/svg"
   xmlns:svg="http://www.w3.org/2000/svg"><sodipodi:namedview
     id="namedview18"
     pagecolor="#ffffff"
     bordercolor="#666666"
     borderopacity="1.0"
     inkscape:showpageshadow="2"
     inkscape:pageopacity="0.0"
     inkscape:pagecheckerboard="0"
     inkscape:deskcolor="#d1d1d1"
     showgrid="false"
     showguides="true"
     inkscape:zoom="2.2291667"
     inkscape:cx="33.420561"
     inkscape:cy="127.17757"
     inkscape:window-width="1902"
     inkscape:window-height="1032"
     inkscape:window-x="8"
     inkscape:window-y="38"
     inkscape:window-maximized="1"
     inkscape:current-layer="svg16" /><defs
     id="defs4"><style
       id="style2">.a{fill:none;stroke:#b1b5bd;stroke-linecap:round;stroke-linejoin:round;isolation:isolate;opacity:0.63;}</style></defs><rect
     class="a"
     x="20"
     y="20"
     width="152"
     height="152"
     rx="10"
     id="rect6"
     style="opacity:1;fill:#83868c;stroke:none" /><rect
     style="opacity:1;fill:#ba6561;stroke:none;stroke-width:6;stroke-linecap:round;stroke-linejoin:round;paint-order:markers fill stroke"
     id="rect920"
     width="132.18478"
     height="131.96053"
     x="29.907608"
     y="30.019737"
     ry="2.102037" /><path
     id="path1021"
     style="opacity:1;fill:#83868c;stroke:none;stroke-width:10.6573;stroke-linecap:round;stroke-linejoin:round;paint-order:markers fill stroke"
     d="m 56.914,23.923828 c 0,0 0.006,11.368442 0,17.603516 3e-5,18.161872 17.499508,32.884921 39.086,32.884765 21.58649,1.57e-4 39.08597,-14.722892 39.086,-32.884765 -0.002,-6.233939 0,-17.603516 0,-17.603516 z"
     sodipodi:nodetypes="cccccc" /><path
     id="path1189"
     style="opacity:1;fill:#ffffff;stroke:none;stroke-width:6.36305;stroke-linecap:round;stroke-linejoin:round;paint-order:markers fill stroke"
     d="M 97.535156 65.484375 A 28.219929 20.127903 0 0 0 124.2207 45.414062 A 28.219929 20.127903 0 0 0 97.535156 25.318359 L 97.535156 65.484375 z " /><path
     id="path1251"
     style="opacity:1;fill:#ffffff;stroke:none;stroke-width:6.36305;stroke-linecap:round;stroke-linejoin:round;paint-order:markers fill stroke"
     d="M 94.464844 25.34375 A 28.219929 20.127903 0 0 0 67.779297 45.414062 A 28.219929 20.127903 0 0 0 94.464844 65.484375 L 94.464844 25.34375 z " /><path
     id="path1249"
     style="opacity:1;fill:#ba6561;stroke:none;stroke-width:6.36305;stroke-linecap:round;stroke-linejoin:round;paint-order:markers fill stroke"
     d="M 94.464844 25.34375 L 94.464844 65.484375 A 28.219929 20.127903 0 0 0 96 65.541016 A 28.219929 20.127903 0 0 0 97.535156 65.484375 L 97.535156 25.318359 A 28.219929 20.127903 0 0 0 96 25.285156 A 28.219929 20.127903 0 0 0 94.464844 25.34375 z " /><text
     xml:space="preserve"
     style="font-size:58.8269px;line-height:1.25;font-family:'DejaVu Math TeX Gyre';-inkscape-font-specification:'DejaVu Math TeX Gyre';stroke-width:1.47067;fill:#ffffff"
     x="66.255646"
     y="136.06009"
     id="text1308"><tspan
       sodipodi:role="line"
       id="tspan1306"
       x="66.255646"
       y="136.06009"
       style="font-style:normal;font-variant:normal;font-weight:normal;font-stretch:normal;font-family:'Now Alt';-inkscape-font-specification:'Now Alt';stroke-width:1.47067;fill:#ffffff">W</tspan></text></svg>

<svg xmlns="http://www.w3.org/2000/svg" xml:space="preserve" viewBox="0 0 192 192"><rect width="152" height="152" x="20" y="20" rx="10" style="opacity:1;fill:#83868c;stroke:none;stroke-linecap:round;stroke-linejoin:round;isolation:isolate"/><rect width="132.185" height="131.961" x="29.908" y="30.02" ry="2.102" style="opacity:1;fill:#ba6561;stroke:none;stroke-width:6;stroke-linecap:round;stroke-linejoin:round;paint-order:markers fill stroke"/><path d="M56.914 23.924s.006 11.368 0 17.603c0 18.162 17.5 32.885 39.086 32.885s39.086-14.723 39.086-32.885c-.002-6.234 0-17.603 0-17.603z" style="opacity:1;fill:#83868c;stroke:none;stroke-width:10.6573;stroke-linecap:round;stroke-linejoin:round;paint-order:markers fill stroke"/><path d="M97.535 65.484a28.22 20.128 0 0 0 26.686-20.07 28.22 20.128 0 0 0-26.686-20.096v40.166zM94.465 25.344a28.22 20.128 0 0 0-26.686 20.07 28.22 20.128 0 0 0 26.686 20.07v-40.14z" style="opacity:1;fill:#fff;stroke:none;stroke-width:6.36305;stroke-linecap:round;stroke-linejoin:round;paint-order:markers fill stroke"/><path d="M94.465 25.344v40.14a28.22 20.128 0 0 0 1.535.057 28.22 20.128 0 0 0 1.535-.057V25.318A28.22 20.128 0 0 0 96 25.285a28.22 20.128 0 0 0-1.535.059z" style="opacity:1;fill:#ba6561;stroke:none;stroke-width:6.36305;stroke-linecap:round;stroke-linejoin:round;paint-order:markers fill stroke"/><text xml:space="preserve" x="66.256" y="136.06" style="font-size:58.8269px;line-height:1.25;font-family:&quot;DejaVu Math TeX Gyre&quot;;-inkscape-font-specification:&quot;DejaVu Math TeX Gyre&quot;;stroke-width:1.47067;fill:#fff"><tspan x="66.256" y="136.06" style="font-style:normal;font-variant:normal;font-weight:400;font-stretch:normal;font-family:&quot;Now Alt&quot;;-inkscape-font-specification:&quot;Now Alt&quot;;stroke-width:1.47067;fill:#fff">W</tspan></text></svg>
